X:1
T:Buena Vista -- Hornpipe
R:hornpipe
B:Cole's 1000 Fiddle Tunes
M:2/4
L:1/16
K:Bb
vdc|BABc dcdB|efed c2vfue|dfBd ceAc|BABG F2(de)|
fbdf BdFB|DFBd f2veud|egfe dcBA|B2B2B2:|
|:vcB|ABG"4"A F2vfue|decd B2vguf|ecfe dBfd|cBAG F2GA|
BABc dcdB|efed c2fe|dfBd ceAc|B2B2B2:|
